X: 1
T:Gan Ainm
R:Reel
S:Seamus Quinn, Fermanagh (fiddle)
D:Session tape - Buncrana 1979
Z:Bernie Stocks
M:4/4
K:G
cA || GE~E2 G2cA | GE~E2 ~G3A | GE~E2 GAcd | edce d2cA :|
cdef g2ge | abaf gaed | (3Bcdef g2fg | afge d2cA :|
